HelpDesk_TicketSystem/ClientApp/src/assets/images/logo6.svg

<svg width="85" height="42" viewBox="0 0 85 42" fill="none" xmlns="http://www.w3.org/2000/svg">
<path d="M0.767944 19.1275C1.08594 17.1535 1.45494 15.1885 2.33794 13.3705C5.94594 5.93649 12.1779 1.99648 20.0609 0.534485C27.9879 -0.934515 35.3629 0.599485 41.9239 5.44748C43.5487 6.66133 44.9815 8.11294 46.1739 9.75349C46.7139 10.4905 46.6909 11.2805 45.9539 11.8495C44.8139 12.7335 44.0909 11.9835 43.3809 11.1025C40.1489 7.09449 35.8959 4.77048 30.9169 3.67448C25.2419 2.42448 19.7269 2.92249 14.4769 5.43949C9.12894 8.00348 5.24194 11.9145 4.03694 17.9135C3.08994 22.6295 4.39894 26.8665 7.47894 30.4915C11.7389 35.5065 17.3589 37.8105 23.8289 38.1925C29.9269 38.5455 35.4719 36.9755 40.3419 33.2225C41.6147 32.2325 42.7468 31.0739 43.7069 29.7785C44.2959 28.9935 45.1039 28.8765 45.8689 29.4245C46.6339 29.9715 46.7289 30.7735 46.1389 31.5485C42.5339 36.2835 37.7039 39.1185 31.9749 40.4665C25.2149 42.0565 18.6549 41.3925 12.4619 38.2195C6.72394 35.2765 2.72094 30.8105 1.13394 24.4275C0.957944 23.7225 0.887944 22.9845 0.767944 22.2605V19.1285V19.1275Z" fill="#04AA92"/>
<path d="M84.3979 24.6276C84.4066 24.7257 84.3773 24.8235 84.3159 24.9006C84.0159 25.2326 83.6689 25.4656 83.1629 25.2666C82.5429 25.0206 82.6369 24.4676 82.6369 23.9636V20.9386C82.627 20.8447 82.6068 20.7522 82.5769 20.6626C82.5208 20.7316 82.4706 20.8052 82.4269 20.8826C81.9169 21.9666 81.4169 23.0556 80.9009 24.1366C80.6379 24.6866 80.5179 25.4126 79.6469 25.3166C78.8639 25.2296 78.8649 24.4726 78.6039 23.9856C78.0419 22.9496 77.5899 21.8536 77.0909 20.7836C77.0639 20.7408 77.0313 20.7018 76.9939 20.6676C76.9739 20.7396 76.9619 20.8136 76.9559 20.8886C76.9359 22.1146 76.9559 23.3416 76.8889 24.5646C76.8579 25.1396 76.4119 25.3696 75.8519 25.3046C75.3679 25.2496 75.1719 24.9046 75.1719 24.4726C75.1579 21.9116 75.1619 19.3486 75.1719 16.7876C75.1719 16.3366 75.3839 16.0256 75.8519 15.9556C76.3219 15.8856 76.6849 16.1006 76.8909 16.5246C77.8109 18.4246 78.7269 20.3256 79.6389 22.2306C79.6839 22.3076 79.7349 22.3816 79.7889 22.4526C79.8319 22.3806 79.8759 22.3106 79.9109 22.2356C80.8448 20.313 81.7765 18.3893 82.7059 16.4646C82.7759 16.2863 82.9052 16.1376 83.0721 16.0436C83.239 15.9496 83.4332 15.916 83.6219 15.9486C84.0019 15.9986 84.3319 16.1606 84.3719 16.6146C84.3889 16.7386 84.3989 16.8646 84.4019 16.9906V24.6256L84.3989 24.6276H84.3979ZM33.1999 25.4296C32.4249 25.1716 32.4749 24.1456 32.1629 23.3986C31.5929 22.0386 31.1329 20.6306 30.6259 19.2406C30.6024 19.199 30.5731 19.161 30.5389 19.1276C30.4929 19.1995 30.4527 19.2751 30.4189 19.3536C29.7409 21.1914 29.0643 23.0298 28.3889 24.8686C28.3347 25.0574 28.2153 25.2209 28.0521 25.3302C27.8888 25.4394 27.6922 25.4874 27.4969 25.4656C27.0549 25.4546 26.8319 25.2556 26.6839 24.8326C25.8069 22.2076 24.8959 19.5916 24.0229 16.9636C23.9834 16.8675 23.9644 16.7643 23.967 16.6605C23.9697 16.5567 23.9939 16.4546 24.0383 16.3607C24.0826 16.2668 24.146 16.1831 24.2244 16.1151C24.3029 16.0471 24.3947 15.9961 24.4939 15.9656C24.9929 15.8146 25.5139 15.8396 25.7259 16.4826L27.4889 21.8426C27.5229 21.9226 27.5629 21.9996 27.6089 22.0726C27.6339 22.0196 27.6649 21.9686 27.6869 21.9066C28.3749 20.0766 29.0709 18.2476 29.7439 16.4176C29.8939 16.0106 30.1869 15.8976 30.5589 15.8976C30.741 15.8927 30.9195 15.9483 31.0664 16.0558C31.2134 16.1634 31.3205 16.3166 31.3709 16.4916C32.0359 18.2816 32.7049 20.0726 33.3769 21.8666C33.4113 21.946 33.4515 22.0229 33.4969 22.0966C33.5429 22.0166 33.5829 21.9346 33.6159 21.8496C34.2029 20.0796 34.8039 18.3106 35.3629 16.5276C35.5669 15.8756 36.0279 15.7956 36.5369 15.9556C37.0459 16.1156 37.2119 16.5376 37.0359 17.0666C36.1679 19.6476 35.3079 22.2306 34.4379 24.8106C34.2809 25.2546 33.9749 25.4956 33.1999 25.4296ZM54.6559 20.7276C54.6819 18.7836 55.3409 17.2066 57.0809 16.3926C58.8569 15.5616 60.6649 15.6426 62.2809 16.9226C62.7239 17.2726 62.9179 17.7536 62.5359 18.2356C62.1799 18.6886 61.6689 18.6966 61.2159 18.3736C59.8319 17.3756 58.3249 17.4196 57.3299 18.4986C56.3019 19.6116 56.2889 21.6026 57.3029 22.7686C58.2349 23.8386 59.7979 23.9086 61.2089 22.9346C61.6659 22.6186 62.1389 22.6016 62.4979 23.0026C62.8919 23.4366 62.7699 23.8976 62.3479 24.3016C61.2199 25.3796 58.9829 25.7266 57.4399 25.0566C55.4999 24.2166 54.7099 22.6666 54.6559 20.7266V20.7276ZM16.7349 25.3926C16.602 25.3946 16.4703 25.3671 16.3493 25.3121C16.2282 25.2571 16.1209 25.176 16.0349 25.0746C14.8189 23.8606 13.5979 22.6546 12.3919 21.4326C11.8669 20.9006 11.8649 20.3496 12.4069 19.8096C13.6669 18.5516 14.9019 17.2716 16.1869 16.0426C16.6219 15.6266 17.1619 15.7606 17.5549 16.1756C17.9469 16.5896 17.9369 17.1066 17.5179 17.5326C16.5669 18.5006 15.6049 19.4576 14.6319 20.4046C14.4379 20.5926 14.4659 20.6726 14.6419 20.8446C15.6269 21.8066 16.6019 22.7796 17.5659 23.7626C17.7055 23.8862 17.7982 24.054 17.8286 24.238C17.8591 24.4219 17.8253 24.6106 17.7329 24.7726C17.5329 25.1416 17.2569 25.4156 16.7349 25.3926ZM11.5779 24.4146C11.4659 25.1246 11.0449 25.4726 10.3349 25.3726C9.73293 25.2896 9.55493 24.8406 9.55493 24.2926V16.9756C9.55493 16.3636 9.73093 15.9006 10.4429 15.8526C11.1079 15.8076 11.4629 16.1406 11.5799 16.7686C11.6049 16.8466 11.6129 16.9286 11.6039 17.0086V24.1816C11.6112 24.2601 11.6027 24.3394 11.5789 24.4146H11.5779ZM22.0439 24.4846C21.9309 25.1966 21.5059 25.5446 20.7959 25.4446C20.1939 25.3596 20.0199 24.9046 20.0199 24.3566V17.0186C20.0199 16.3916 20.2339 15.9436 20.9299 15.9106C21.6249 15.8776 21.9669 16.2436 22.0449 16.9086C22.0699 16.986 22.0781 17.0678 22.0689 17.1486V24.2516C22.0762 24.3301 22.0677 24.4094 22.0439 24.4846ZM39.1199 20.6576V16.8676C39.1199 16.2576 39.4669 15.9136 40.0629 15.9026C40.6579 15.8906 41.1089 16.2346 41.1159 16.8456C41.1439 19.3966 41.1489 21.9456 41.1159 24.4956C41.1159 25.1516 40.6649 25.4946 39.9809 25.4496C39.3909 25.4056 39.1249 25.0436 39.1209 24.4826C39.1149 23.2086 39.1199 21.9326 39.1199 20.6576Z" fill="#181B1E"/>
<path d="M49.9409 20.6054C49.8409 21.6574 49.2609 22.2944 48.2439 22.3044C47.2279 22.3144 46.5939 21.6104 46.6089 20.6404C46.6239 19.6704 47.2079 18.9994 48.2589 19.0104C49.2769 19.0144 49.8119 19.6264 49.9409 20.6054Z" fill="#05AA92"/>
<path d="M68.627 15.8804C65.927 15.8704 63.943 17.8764 63.937 20.6104C63.937 23.3954 65.881 25.3804 68.627 25.3874C71.216 25.3874 73.3369 23.3914 73.3429 20.9284C73.3529 17.9414 71.437 15.8884 68.627 15.8804ZM68.64 23.6704C66.993 23.6604 65.8 22.3674 65.812 20.6144C65.826 18.8614 67.042 17.5824 68.682 17.5954C70.322 17.6084 71.4869 18.9014 71.4689 20.6754C71.4509 22.4504 70.279 23.6794 68.642 23.6694H68.64V23.6704Z" fill="#181B1E"/>
</svg>

<svg width="85" height="42" fill="none" xmlns="http://www.w3.org/2000/svg"><path d="M.768 19.128c.318-1.974.687-3.94 1.57-5.758C5.946 5.936 12.178 1.996 20.06.534 27.988-.935 35.363.6 41.924 5.447a20.199 20.199 0 0 1 4.25 4.306c.54.738.517 1.527-.22 2.097-1.14.883-1.863.133-2.573-.748-3.232-4.008-7.485-6.332-12.464-7.428-5.675-1.25-11.19-.752-16.44 1.765-5.348 2.564-9.235 6.476-10.44 12.474-.947 4.716.362 8.953 3.442 12.578 4.26 5.016 9.88 7.32 16.35 7.702 6.098.352 11.643-1.218 16.513-4.97a17.763 17.763 0 0 0 3.365-3.444c.589-.785 1.397-.902 2.162-.355.765.547.86 1.35.27 2.125-3.605 4.734-8.435 7.57-14.164 8.918-6.76 1.59-13.32.925-19.513-2.248C6.724 35.276 2.72 30.81 1.134 24.427c-.176-.704-.246-1.442-.366-2.166v-3.133Z" fill="#04AA92"/><path d="M84.398 24.628a.384.384 0 0 1-.082.273c-.3.332-.647.565-1.153.366-.62-.246-.526-.8-.526-1.303v-3.025a1.304 1.304 0 0 0-.06-.276 1.58 1.58 0 0 0-.15.22c-.51 1.084-1.01 2.173-1.526 3.254-.263.55-.383 1.276-1.254 1.18-.783-.087-.782-.844-1.043-1.331-.562-1.036-1.014-2.132-1.513-3.202a.567.567 0 0 0-.097-.116c-.02.072-.032.146-.038.22-.02 1.227 0 2.454-.067 3.677-.031.575-.477.805-1.037.74-.484-.055-.68-.4-.68-.832-.014-2.561-.01-5.124 0-7.685 0-.451.212-.762.68-.832.47-.07.833.145 1.039.569.92 1.9 1.836 3.8 2.748 5.706.045.077.096.15.15.222.043-.072.087-.142.122-.217.934-1.923 1.865-3.847 2.795-5.771a.832.832 0 0 1 .916-.516c.38.05.71.212.75.666.017.124.027.25.03.376v7.635l-.003.002h-.001ZM33.2 25.43c-.775-.258-.725-1.284-1.037-2.031-.57-1.36-1.03-2.768-1.537-4.158a.505.505 0 0 0-.087-.113 1.576 1.576 0 0 0-.12.226c-.678 1.837-1.355 3.676-2.03 5.515a.832.832 0 0 1-.892.597c-.442-.011-.665-.21-.813-.633-.877-2.625-1.788-5.241-2.661-7.87a.748.748 0 0 1 .47-.997c.5-.151 1.02-.126 1.233.517l1.763 5.36c.034.08.074.157.12.23.025-.053.056-.104.078-.166.688-1.83 1.384-3.66 2.057-5.49.15-.406.443-.52.815-.52a.822.822 0 0 1 .812.595c.665 1.79 1.334 3.58 2.006 5.375.034.079.075.156.12.23.046-.08.086-.162.119-.247.587-1.77 1.188-3.54 1.747-5.322.204-.652.665-.732 1.174-.572.509.16.675.582.499 1.11-.868 2.582-1.728 5.165-2.598 7.745-.157.444-.463.685-1.238.619Zm21.456-4.702c.026-1.944.685-3.521 2.425-4.335 1.776-.831 3.584-.75 5.2.53.443.35.637.83.255 1.313-.356.453-.867.46-1.32.138-1.384-.998-2.891-.954-3.886.125-1.028 1.113-1.041 3.104-.027 4.27.932 1.07 2.495 1.14 3.906.166.457-.316.93-.333 1.289.068.394.434.272.895-.15 1.299-1.128 1.078-3.365 1.425-4.908.755-1.94-.84-2.73-2.39-2.784-4.33Zm-37.921 4.665a.9.9 0 0 1-.7-.318c-1.216-1.214-2.437-2.42-3.643-3.642-.525-.532-.527-1.083.015-1.623 1.26-1.258 2.495-2.538 3.78-3.767.435-.416.975-.282 1.368.133.392.414.382.93-.037 1.357-.951.968-1.913 1.925-2.886 2.872-.194.188-.166.268.01.44.985.962 1.96 1.935 2.924 2.918a.811.811 0 0 1 .167 1.01c-.2.369-.476.643-.998.62Zm-5.157-.978c-.112.71-.533 1.058-1.243.958-.602-.083-.78-.532-.78-1.08v-7.317c0-.612.176-1.075.888-1.123.665-.045 1.02.288 1.137.916.025.078.033.16.024.24v7.173a.591.591 0 0 1-.025.233h-.001Zm10.466.07c-.113.712-.538 1.06-1.248.96-.602-.085-.776-.54-.776-1.088v-7.338c0-.627.214-1.075.91-1.108.695-.033 1.037.333 1.115.998a.57.57 0 0 1 .024.24v7.103a.591.591 0 0 1-.025.233Zm17.076-3.827v-3.79c0-.61.347-.954.943-.965.595-.012 1.046.332 1.053.943.028 2.55.033 5.1 0 7.65 0 .656-.451.999-1.135.954-.59-.044-.856-.406-.86-.967-.006-1.274-.001-2.55-.001-3.825Z" fill="#181B1E"/><path d="M49.94 20.605c-.1 1.052-.68 1.69-1.696 1.7-1.016.01-1.65-.695-1.635-1.665.015-.97.599-1.64 1.65-1.63 1.018.004 1.553.616 1.682 1.595Z" fill="#05AA92"/><path d="M68.627 15.88c-2.7-.01-4.684 1.996-4.69 4.73 0 2.785 1.944 4.77 4.69 4.777 2.589 0 4.71-1.996 4.716-4.459.01-2.987-1.906-5.04-4.716-5.048Zm.013 7.79c-1.647-.01-2.84-1.303-2.828-3.056.014-1.753 1.23-3.032 2.87-3.019 1.64.013 2.805 1.306 2.787 3.08-.018 1.775-1.19 3.004-2.827 2.994h-.002v.001Z" fill="#181B1E"/></svg>
